brandFactory_export/3.Masa/Perfume _3Masa.svg

<?xml version="1.0" encoding="UTF-8"?>
<svg width="24px" height="24px" viewBox="0 0 24 24" version="1.1" xmlns="http://www.w3.org/2000/svg" xmlns:xlink="http://www.w3.org/1999/xlink">
    <title>3.Masa/Perfume _3Masa</title>
    <g id="Symbols" stroke="none" stroke-width="1" fill="none" fill-rule="evenodd">
        <g id="3.Masa/Perfume-_3Masa" fill="#5CB615" fill-rule="nonzero">
            <path d="M17.2067227,22.1781513 L6.55462185,22.1781513 C6.41008403,22.1781513 6.28907563,22.0605042 6.28907563,21.912605 C6.28907563,21.7647059 6.40672269,21.6470588 6.55462185,21.6470588 L17.2067227,21.6470588 C17.3512605,21.6470588 17.4689076,21.7680672 17.4689076,21.912605 C17.4689076,22.0605042 17.3512605,22.1781513 17.2067227,22.1781513 Z M9.30084034,2.52773109 C9.30084034,1.92941176 9.78487395,1.44537815 10.3798319,1.44537815 L12.9344538,1.44537815 C13.5294118,1.44537815 14.0134454,1.92941176 14.0134454,2.52773109 L14.0134454,5.59663866 C13.3109244,5.47563025 12.594958,5.39159664 11.8621849,5.39159664 C11.0084034,5.39159664 10.1478992,5.48235294 9.30420168,5.66386555 L9.30420168,2.52773109 L9.30084034,2.52773109 Z M21.7042017,14.1109244 C21.7042017,10.1310924 19.3747899,7.1092437 15.4487395,5.91596639 L15.4487395,2.52773109 C15.4487395,1.13277311 14.3193277,0 12.9344538,0 L10.3798319,0 C8.99159664,0 7.86554622,1.13277311 7.86554622,2.52773109 L7.86554622,6.07058824 C4.63865546,7.21344538 2.02016807,9.81848739 2.02016807,14.1109244 C2.02016807,16.9613445 3.14957983,19.3142857 5.22689076,20.8605042 C4.99831933,21.1529412 4.85378151,21.5159664 4.85378151,21.9159664 C4.85378151,22.8571429 5.61680672,23.6235294 6.55798319,23.6235294 L17.210084,23.6235294 C18.1478992,23.6235294 18.9109244,22.8571429 18.9109244,21.9159664 C18.9109244,21.5294118 18.7764706,21.1731092 18.5579832,20.887395 C20.6184874,19.3579832 21.7042017,17.0420168 21.7042017,14.1109244 Z M8.16806723,12.5109244 L8.16806723,15.9260504 C8.16806723,16.4 8.5512605,16.7865546 9.02521008,16.7865546 L14.4033613,16.7865546 C14.8773109,16.7865546 15.2605042,16.4 15.2605042,15.9260504 L15.2605042,12.5109244 C15.2605042,12.0369748 14.8773109,11.6504202 14.4033613,11.6504202 L9.02521008,11.6504202 C8.5512605,11.6504202 8.16806723,12.0369748 8.16806723,12.5109244 L8.16806723,12.5109244 Z M9.02521008,18.2285714 C7.75798319,18.2285714 6.72941176,17.1966387 6.72941176,15.9260504 L6.72941176,12.5109244 C6.72941176,11.2403361 7.75798319,10.205042 9.02521008,10.205042 L14.4033613,10.205042 C15.6672269,10.205042 16.6991597,11.2403361 16.6991597,12.5109244 L16.6991597,15.9260504 C16.6991597,17.1966387 15.6705882,18.2285714 14.4033613,18.2285714 L9.02521008,18.2285714 L9.02521008,18.2285714 Z M10.6857143,13.6840336 C10.4201681,13.6840336 10.205042,13.4689076 10.205042,13.2033613 C10.205042,12.9378151 10.4201681,12.7226891 10.6857143,12.7226891 L12.692437,12.7226891 C12.9579832,12.7226891 13.1731092,12.9378151 13.1731092,13.2033613 C13.1731092,13.4689076 12.9579832,13.6840336 12.692437,13.6840336 L10.6857143,13.6840336 Z M9.92941176,15.5932773 C9.66386555,15.5932773 9.4487395,15.3781513 9.4487395,15.112605 C9.4487395,14.8470588 9.66386555,14.6319328 9.92941176,14.6319328 L13.4420168,14.6319328 C13.707563,14.6319328 13.9226891,14.8470588 13.9226891,15.112605 C13.9226891,15.3781513 13.707563,15.5932773 13.4420168,15.5932773 L9.92941176,15.5932773 Z M11.9596639,3.43193277 C11.9596639,3.6605042 12.1310924,3.8487395 12.3394958,3.8487395 C12.5478992,3.8487395 12.7193277,3.6605042 12.7193277,3.43193277 C12.7193277,3.20336134 12.5478992,3.01176471 12.3394958,3.01176471 C12.1310924,3.01176471 11.9596639,3.2 11.9596639,3.43193277 Z M13.6773109,3.43193277 C13.6773109,4.19159664 13.0756303,4.81344538 12.3394958,4.81344538 C11.6,4.81344538 11.0016807,4.19159664 11.0016807,3.43193277 C11.0016807,2.66890756 11.6033613,2.0504066 12.3394958,2.0504066 C13.0789916,2.04705882 13.6773109,2.66890756 13.6773109,3.43193277 Z M16.887395,2.50756303 C16.702521,2.50756303 16.5176471,2.43697479 16.3798319,2.29579832 C16.097479,2.01344538 16.097479,1.55630252 16.3798319,1.27394958 L17.2336134,0.413445378 C17.5159664,0.131092437 17.9697479,0.131092437 18.2521008,0.413445378 C18.5344538,0.695798319 18.5344538,1.15294118 18.2521008,1.43529412 L17.3983193,2.29243697 C17.2571429,2.43697479 17.0722689,2.50756303 16.887395,2.50756303 Z M17.102521,3.23361345 C17.102521,2.83361345 17.4252101,2.51092437 17.8218487,2.51092437 L19.3882353,2.51092437 C19.7848739,2.51092437 20.107563,2.83361345 20.107563,3.23361345 C20.107563,3.63361345 19.7848739,3.95630252 19.3882353,3.95630252 L17.8218487,3.95630252 C17.4218487,3.95294118 17.102521,3.6302521 17.102521,3.23361345 Z M16.4403361,4.17478992 C16.7226891,3.89243697 17.1764706,3.89243697 17.4588235,4.17478992 L18.3630252,5.08235294 C18.6453782,5.36470588 18.6453782,5.82184874 18.3630252,6.10420168 C18.2218487,6.24537815 18.0403361,6.31596639 17.8554622,6.31596639 C17.6705882,6.31596639 17.4857143,6.24537815 17.3478992,6.10420168 L16.4436975,5.19663866 C16.1613445,4.91428571 16.1613445,4.45714286 16.4403361,4.17478992 L16.4403361,4.17478992 Z" id="Perfume-_3Masa"></path>
        </g>
    </g>
</svg>

<svg width="24" height="24" viewBox="0 0 24 24" xmlns="http://www.w3.org/2000/svg"><path d="M17.207 22.178H6.555a.266.266 0 010-.53h10.652a.265.265 0 010 .53zM9.3 2.528a1.08 1.08 0 011.079-1.083h2.554a1.08 1.08 0 011.08 1.083v3.069a12.644 12.644 0 00-2.152-.205c-.854 0-1.714.09-2.558.272V2.528h-.003zM21.704 14.11c0-3.98-2.33-7.002-6.255-8.195V2.528A2.524 2.524 0 0012.934 0H10.38a2.522 2.522 0 00-2.514 2.528V6.07C4.639 7.213 2.02 9.818 2.02 14.11c0 2.85 1.13 5.203 3.207 6.75a1.709 1.709 0 00-.373 1.055c0 .941.763 1.708 1.704 1.708H17.21c.938 0 1.7-.767 1.7-1.708 0-.387-.134-.743-.352-1.029 2.06-1.529 3.146-3.845 3.146-6.776zm-13.536-1.6v3.415c0 .474.383.86.857.86h5.378a.86.86 0 00.858-.86v-3.415a.86.86 0 00-.858-.86H9.025a.86.86 0 00-.857.86zm.857 5.718a2.3 2.3 0 01-2.296-2.303v-3.415a2.303 2.303 0 012.296-2.306h5.378a2.305 2.305 0 012.296 2.306v3.415a2.3 2.3 0 01-2.296 2.303H9.025zm1.66-4.545a.48.48 0 110-.961h2.007a.48.48 0 110 .961h-2.006zm-.756 1.91a.48.48 0 110-.962h3.513a.48.48 0 110 .961H9.929zm2.03-12.162c0 .229.172.417.38.417.209 0 .38-.188.38-.417 0-.229-.171-.42-.38-.42-.208 0-.38.188-.38.42zm1.718 0c0 .76-.601 1.381-1.338 1.381-.739 0-1.337-.621-1.337-1.381 0-.763.601-1.382 1.337-1.382.74-.003 1.338.619 1.338 1.382zm3.21-.924a.722.722 0 01-.508-1.234l.855-.86a.722.722 0 011.018 1.022l-.854.856a.71.71 0 01-.51.216zm.216.726c0-.4.322-.723.719-.723h1.566a.72.72 0 01.72.723.72.72 0 01-.72.722h-1.566a.723.723 0 01-.72-.722zm-.663.94a.718.718 0 011.019 0l.904.908a.722.722 0 01-.508 1.234.707.707 0 01-.507-.212l-.904-.907a.725.725 0 01-.004-1.022z" fill="#5CB615" fill-rule="nonzero"/></svg>
